X: 60
T:Ronde des lavandi?res
A:Ile-de-France
Z:Transcrit et/ou corrig? par Michel BELLON - 2007-04-23
Z:Pour toute observation mailto:galouvielle@free.fr
M:6/8
L:1/8
K:Cmaj
P:Intro
g | c2d e2f | g3 g3 | def e2d | c3- c2 || g | \
c2d e2f | g3 g2g | a2a g2f | g3 +breath+g2e |
g2f e2f | d6 | def e2d | e3 +breath+c2G | \
c2d e2f | g6 | def e2d | c6 |]
<end>
<start>
